src/images/pages/trade-explanation/zh_tw/run-high.svg

<?xml version="1.0" encoding="UTF-8"?>
<svg width="299px" height="197px" viewBox="0 0 299 197" version="1.1" xmlns="http://www.w3.org/2000/svg" xmlns:xlink="http://www.w3.org/1999/xlink">
    <!-- Generator: Sketch 52.6 (67491) - http://www.bohemiancoding.com/sketch -->
    <title>Run high</title>
    <desc>Created with Sketch.</desc>
    <defs>
        <path d="M22.92,10.61 C23.055,10.985 23.19,11.39 23.325,11.84 L29.16,11.84 L29.16,13.16 L15.825,13.16 L15.825,11.84 L21.78,11.84 C21.645,11.495 21.495,11.18 21.33,10.88 L22.92,10.61 Z M26.73,24.5 L25.485,24.5 L25.155,23.225 L26.31,23.285 C26.865,23.285 27.15,23.075 27.15,22.685 L27.15,18.89 L17.85,18.89 L17.85,24.545 L16.5,24.545 L16.5,17.66 L28.5,17.66 L28.5,22.985 C28.5,23.99 27.9,24.5 26.73,24.5 Z M18.18,13.865 L26.835,13.865 L26.835,16.985 L18.18,16.985 L18.18,13.865 Z M25.47,15.905 L25.47,14.945 L19.545,14.945 L19.545,15.905 L25.47,15.905 Z M19.455,19.61 L25.56,19.61 L25.56,22.76 L19.455,22.76 L19.455,19.61 Z M24.3,21.71 L24.3,20.66 L20.73,20.66 L20.73,21.71 L24.3,21.71 Z M31.845,10.955 C32.655,11.675 33.345,12.38 33.915,13.1 L32.91,14.105 C32.415,13.415 31.725,12.695 30.855,11.93 L31.845,10.955 Z M31.485,14.555 C32.31,15.275 33,16.01 33.54,16.73 L32.55,17.72 C32.055,17.03 31.365,16.31 30.48,15.53 L31.485,14.555 Z M32.34,18.59 L33.6,19.085 C33.105,20.99 32.565,22.79 31.965,24.47 L30.645,23.885 C31.305,22.16 31.86,20.39 32.34,18.59 Z M43.755,11.18 L43.755,12.44 L39.96,12.44 L39.96,13.37 L43.32,13.37 L43.32,14.585 L39.96,14.585 L39.96,15.56 L43.32,15.56 L43.32,16.76 L39.96,16.76 L39.96,17.705 L44.13,17.705 L44.13,18.995 L41.88,18.995 C41.955,19.445 42.06,19.88 42.21,20.27 C42.585,20.06 42.96,19.79 43.32,19.46 L44.175,20.315 C43.725,20.72 43.23,21.05 42.69,21.305 C43.125,22.085 43.71,22.76 44.46,23.315 L43.725,24.5 C42.075,23.15 41.085,21.305 40.725,18.995 L39.795,18.995 L39.795,22.925 C40.35,22.76 40.905,22.55 41.445,22.28 L41.67,23.465 C40.71,23.885 39.615,24.245 38.385,24.515 L37.875,23.42 C38.31,23.27 38.535,23.03 38.535,22.7 L38.535,18.995 L37.74,18.995 L37.74,17.705 L38.625,17.705 L38.625,11.18 L43.755,11.18 Z M35.4,15.86 L35.19,18.095 L37.455,18.095 C37.455,20.585 37.38,22.25 37.245,23.075 C37.11,23.93 36.495,24.395 35.415,24.47 C35.085,24.47 34.755,24.455 34.425,24.425 L34.11,23.225 C34.44,23.255 34.785,23.285 35.13,23.285 C35.67,23.285 35.985,23.03 36.075,22.535 C36.135,22.025 36.18,20.96 36.18,19.34 L33.9,19.34 L34.305,14.615 L36.12,14.615 L36.12,12.44 L34.11,12.44 L34.11,11.195 L37.38,11.195 L37.38,15.86 L35.4,15.86 Z" id="path-1"></path>
    </defs>
    <g id="Page-1" stroke="none" stroke-width="1" fill="none" fill-rule="evenodd">
        <g id="Run-high">
            <polygon id="Path" fill="#F1F2F2" points="0 0 299 0 299 197 0 197"></polygon>
            <path d="M1.98671096,1.9798995 L1.98671096,195.020101 L297.013289,195.020101 L297.013289,1.9798995 L1.98671096,1.9798995 Z M299,0 L299,197 L0,197 L0,0 L299,0 Z" id="Path" fill="#C2C2C2" fill-rule="nonzero"></path>
            <path d="M4,55.0670861 L4,53.8631465 L294,53.8631465 L294,55.0670861 L4,55.0670861 Z M4,77.3926677 L4,76.188728 L294,76.188728 L294,77.3926677 L4,77.3926677 Z M4,95.9973189 L4,94.7933792 L294,94.7933792 L294,95.9973189 L4,95.9973189 Z M4,135.936627 L4,134.732687 L294,134.732687 L294,135.936627 L4,135.936627 Z M4,155.532203 L4,154.328263 L294,154.328263 L294,155.532203 L4,155.532203 Z M4,177.857784 L4,176.653845 L294,176.653845 L294,177.857784 L4,177.857784 Z M38.72025,34 L39.9207756,34 L39.9207756,194 L38.72025,194 L38.72025,34 Z M75.8997371,34 L77.1002628,34 L77.1002628,194 L75.8997371,194 L75.8997371,34 Z M113.079225,34 L114.27975,34 L114.27975,194 L113.079225,194 L113.079225,34 Z M146.540763,34 L147.741288,34 L147.741288,194 L146.540763,194 L146.540763,34 Z M183.720249,34 L184.920775,34 L184.920775,194 L183.720249,194 L183.720249,34 Z M220.899737,34 L222.100263,34 L222.100263,194 L220.899737,194 L220.899737,34 Z M258.079224,34 L259.279749,34 L259.279749,194 L258.079224,194 L258.079224,34 Z" id="Shape" fill="#DFDEDE" fill-rule="nonzero"></path>
            <polygon id="Path" fill="#2A3052" fill-rule="nonzero" points="3.90644108 135.819829 3.90644108 134.604863 295.513238 134.604863 295.513238 135.819829"></polygon>
            <polygon id="Path" fill="#C2C2C2" fill-rule="nonzero" points="0.799346801 34.7797904 0.799346801 32.3494829 294.362731 32.3494829 294.362731 34.7797904"></polygon>
            <path d="M187.239564,148.191156 L152.058614,148.191156 L146.640372,139.96769 L141.22213,148.191156 L106.041181,148.191156 C103.407313,148.191156 101.300218,150.33151 101.300218,152.997566 L101.300218,177.818164 C101.300218,180.484219 103.444939,182.624573 106.041181,182.624573 L187.27719,182.624573 C189.911058,182.624573 192.018152,180.484219 192.018152,177.818164 L192.018152,152.997566 C192.018152,150.33151 189.873431,148.191156 187.239564,148.191156 Z" id="Path" fill="#E88024"></path>
            <path d="M130.903705,87.8267404 L93.54167,114.616552 C93.3977462,114.719751 93.228998,114.782876 93.052679,114.799474 L58.0937925,118.090471 C57.5439388,118.142234 57.0562324,117.738451 57.0044697,117.188598 C56.952707,116.638744 57.3564895,116.151038 57.9063432,116.099275 L92.5960015,112.833623 L129.900423,86.0851221 C130.007467,86.0083679 130.12862,85.9535173 130.256924,85.9237208 L166.795918,77.4380995 L203.144631,53.756333 C203.272356,53.6731185 203.417414,53.6202062 203.56872,53.6016401 L241.008677,49.0075468 C241.55685,48.9402828 242.055761,49.3301369 242.123025,49.8783103 C242.190289,50.4264836 241.800435,50.9253941 241.252261,50.992658 L204.042269,55.5585334 L167.739862,79.2101305 C167.642072,79.2738422 167.533884,79.3199429 167.420196,79.3463452 L130.903705,87.8267404 Z M166.967767,77.3981902 L166.6481,77.534405 L166.795918,77.4380995 L166.967767,77.3981902 Z M92.8652297,112.808278 L92.3762387,112.9912 L92.5960015,112.833623 L92.8652297,112.808278 Z" id="Shape" fill="#2A3052" fill-rule="nonzero"></path>
            <g id="Group" transform="translate(231.250000, 41.000000)">
                <g id="Oval" opacity="0.6" fill="#FFFFFF">
                    <ellipse cx="8.5125" cy="9.225" rx="8.1375" ry="8.475"></ellipse>
                </g>
                <path d="M8.5125,18.02305 C3.83686418,18.02305 0.05195,14.0811578 0.05195,9.225 C0.05195,4.36884218 3.83686418,0.42695 8.5125,0.42695 C13.1881358,0.42695 16.97305,4.36884218 16.97305,9.225 C16.97305,14.0811578 13.1881358,18.02305 8.5125,18.02305 Z M8.5125,17.37695 C12.8252985,17.37695 16.32695,13.7300687 16.32695,9.225 C16.32695,4.71993131 12.8252985,1.07305 8.5125,1.07305 C4.19970152,1.07305 0.69805,4.71993131 0.69805,9.225 C0.69805,13.7300687 4.19970152,17.37695 8.5125,17.37695 Z" id="Oval" fill="#E88024" fill-rule="nonzero"></path>
            </g>
            <g id="Group" transform="translate(83.000000, 104.250000)">
                <g id="Oval" opacity="0.6" transform="translate(1.000000, 0.000000)" fill="#FFFFFF">
                    <ellipse cx="8.1375" cy="8.475" rx="8.1375" ry="8.475"></ellipse>
                </g>
                <path d="M9.1375,18.27305 C4.46186418,18.27305 0.67695,14.3311578 0.67695,9.475 C0.67695,4.61884218 4.46186418,0.67695 9.1375,0.67695 C13.8131358,0.67695 17.59805,4.61884218 17.59805,9.475 C17.59805,14.3311578 13.8131358,18.27305 9.1375,18.27305 Z M9.1375,17.62695 C13.4502985,17.62695 16.95195,13.9800687 16.95195,9.475 C16.95195,4.96993131 13.4502985,1.32305 9.1375,1.32305 C4.82470152,1.32305 1.32305,4.96993131 1.32305,9.475 C1.32305,13.9800687 4.82470152,17.62695 9.1375,17.62695 Z" id="Oval" fill="#E88024" fill-rule="nonzero"></path>
            </g>
            <g id="高漲" fill="#000000">
                <use xlink:href="#path-1"></use>
                <use xlink:href="#path-1"></use>
            </g>
            <path d="M236.948,67 L238.131,67.476 C236.842,70.3 235.956,71.949 235.472,72.422 L237.734,72.107 L238.984,69.937 L240.157,70.37 C238.294,73.576 236.716,76.078 235.919,76.682 L238.985,76.042 L238.506,74.433 L239.468,74.095 C240.179,76.004 240.535,77.157 240.535,77.555 C239.935,77.716 239.579,77.815 239.468,77.853 L239.254,77.003 C236.623,77.673 235.033,78.007 234.484,78.007 C234.358005,77.6251989 234.245931,77.2389439 234.148,76.849 C234.911,76.665 236.626,74.095 237.056,73.287 L234.316,73.697 C234.204,73.283 234.099,72.899 234,72.545 C234.557,72.371 235.54,70.523 236.948,67 Z M238.81,78.492 C239.13182,78.364842 239.460698,78.2563289 239.795,78.167 C240.515,79.959 240.875,80.96 240.875,81.167 C240.816,81.232 240.478,81.391 239.859,81.642 C239.540084,80.5818929 239.189932,79.531435 238.809,78.492 L238.81,78.492 Z M237.712,78.655 C237.797,78.982 238.418,82.135 238.418,82.263 L237.23,82.549 C236.982,80.589 236.8,79.378 236.683,78.913 C237.139,78.773 237.226,78.773 237.713,78.655 L237.712,78.655 Z M234.675,78.903 L235.816,79.043 C235.666,81.04 235.455,82.385 235.183,83.08 C234.804808,82.9630614 234.425109,82.8510519 234.044,82.744 C234.384,81.558 234.594,80.277 234.674,78.904 L234.675,78.903 Z M240.346,69.349 L240.346,70.578 L244.681,70.578 L244.681,73.274 L240.877,73.274 L240.877,74.499 L249.812,74.499 L249.812,73.274 L245.945,73.274 L245.945,70.578 L250.175,70.578 L250.175,69.349 L245.945,69.349 L245.945,67.107 L244.681,67.107 L244.681,69.349 L240.346,69.349 Z M247.995,83.402 L247.995,82.583 L242.702,82.583 L242.702,83.403 L241.468,83.403 L241.468,76.281 L249.236,76.281 L249.236,83.403 L247.995,83.403 L247.995,83.402 Z M248.029,77.489 L242.716,77.489 L242.716,81.36 L248.029,81.36 L248.029,77.49 L248.029,77.489 Z M259.283,68.902 L259.283,67.085 L260.593,67.085 L260.593,68.901 L267.555,68.901 L267.555,70.109 L260.593,70.109 L260.593,71.775 L266.162,71.775 L266.162,76.876 L261.712,76.876 C262.605,78.427 264.755,80.064 268.16,81.787 C268.092,81.829 267.805,82.19 267.299,82.87 C265.392,81.957 261.711,79.065 260.593,76.876 L260.604,83.382 L259.284,83.382 C259.274,78.91 259.25,76.746 259.212,76.888 C258.048,78.953 255.487,81.585 252.457,82.87 L251.727,81.749 C254.94,80.249 257.087,78.625 258.171,76.876 L253.691,76.888 L253.691,71.775 L259.283,71.775 L259.283,70.109 L252.327,70.109 L252.327,68.902 L259.283,68.902 Z M259.235,73.062 L254.919,73.062 L254.919,75.792 L259.235,75.792 L259.235,73.062 Z M260.6,75.764 L264.958,75.764 L264.958,73.099 L260.6,73.099 L260.6,75.764 Z" id="Shape" fill="#2A3052" fill-rule="nonzero"></path>
            <path d="M136.924,169.118 L136.924,170.62 C136.924,170.776 136.898,170.931 136.898,171.086 L139.644,171.086 L139.644,169.118 L136.924,169.118 Z M139.644,167.901 L139.644,165.802 L136.924,165.802 L136.924,167.901 L139.644,167.901 Z M136.82,172.304 C136.587,174.014 136.043,175.464 135.188,176.629 L134.048,175.593 C134.981,174.298 135.448,172.666 135.473,170.698 L135.473,164.456 L141.068,164.456 L141.068,174.972 C141.068,176.008 140.498,176.526 139.385,176.526 L138.089,176.526 L137.727,175.101 C138.141,175.127 138.556,175.153 138.918,175.153 C139.385,175.153 139.644,174.894 139.644,174.428 L139.644,172.304 L136.82,172.304 Z M136.458,155.727 L134.282,155.727 L134.282,154.328 L144.928,154.328 C144.722732,153.876744 144.479876,153.443551 144.202,153.033 L146.042,152.723 C146.326,153.214 146.585,153.758 146.818,154.328 L157.283,154.328 L157.283,155.727 L138.115,155.727 L138.115,157.125 L155.729,157.125 L155.729,158.395 L136.458,158.395 L136.458,155.727 Z M156.221,176.137 L155.003,176.137 C154.149,176.137 153.734,175.723 153.734,174.946 L153.734,171.397 L152.931,171.941 C152.491,171.061 151.895,170.128 151.17,169.118 L151.17,169.558 C151.17,171.32 151.04,172.692 150.833,173.625 C150.574,174.557 150.082,175.567 149.305,176.603 L148.139,175.567 L147.725,176.06 C147.133385,175.31794 146.464635,174.64081 145.73,174.04 L146.611,173.21 C147.311,173.728 147.958,174.35 148.528,175.023 C148.942,174.376 149.228,173.78 149.383,173.236 C149.59,172.511 149.719,171.268 149.719,169.558 L149.719,164.456 L155.185,164.456 L155.185,174.531 C155.185,174.739 155.288,174.868 155.521,174.868 L155.988,174.868 C156.168,174.868 156.324,174.713 156.428,174.454 C156.506,174.169 156.583,173.21 156.661,171.579 L157.827,171.993 C157.671,173.858 157.516,175.023 157.334,175.463 C157.127,175.904 156.739,176.137 156.221,176.137 Z M151.17,168.703 L151.947,168.237 C152.724,169.273 153.32,170.154 153.734,170.931 L153.734,165.906 L151.17,165.906 L151.17,168.703 Z M142.39,164.456 L148.295,164.456 L148.295,172.822 L142.389,172.822 L142.389,164.456 L142.39,164.456 Z M146.844,171.682 L146.844,170.309 L143.814,170.309 L143.814,171.682 L146.844,171.682 Z M143.814,169.325 L146.844,169.325 L146.844,168.005 L143.814,168.005 L143.814,169.325 Z M143.814,167.045 L146.844,167.045 L146.844,165.621 L143.814,165.621 L143.814,167.046 L143.814,167.045 Z M143.969,173.236 L144.902,174.066 C144.228,175.023 143.373,175.852 142.389,176.578 L141.586,175.516 C142.495519,174.886326 143.299779,174.116828 143.969,173.236 Z M137.235,159.534 L154.252,159.534 L154.252,163.29 L137.235,163.29 L137.235,159.534 Z M152.517,162.202 L152.517,160.622 L138.969,160.622 L138.969,162.202 L152.516,162.202 L152.517,162.202 Z M161.841,155.52 L164.251,155.52 L163.861,169.04 L162.256,169.04 L161.841,155.52 Z M163.033,170.931 C163.499,170.931 163.862,171.061 164.173,171.371 C164.457,171.656 164.613,172.019 164.613,172.459 C164.613,172.925 164.457,173.289 164.173,173.573 C163.862,173.858 163.473,174.013 163.033,174.013 C162.593,174.013 162.23,173.858 161.945,173.573 C161.641078,173.282923 161.472145,172.879078 161.479,172.459 C161.479,172.019 161.634,171.656 161.945,171.371 C162.23,171.061 162.592,170.931 163.033,170.931 Z" id="Shape" fill="#FFFFFF" fill-rule="nonzero"></path>
            <path d="M35.622,100.381 L38.149,100.381 L38.149,98.196 L36.135,98.196 L36.135,97.018 L45.35,97.018 L45.35,98.196 L43.507,98.196 L43.507,100.381 L45.958,100.381 L45.958,101.597 L43.507,101.597 L43.507,105.967 L42.253,105.967 L42.253,101.597 L39.289,101.597 C39.175,102.604 38.947,103.459 38.605,104.143 C38.149,105.036 37.37,105.739 36.306,106.233 L35.622,105.15 C36.553,104.694 37.218,104.086 37.598,103.326 C37.807,102.832 37.959,102.243 38.054,101.597 L35.622,101.597 L35.622,100.381 Z M42.253,100.381 L42.253,98.196 L39.384,98.196 L39.384,100.381 L42.253,100.381 Z M34.368,93.142 L34.368,94.529 L38.643,94.529 L38.643,93.142 L34.368,93.142 Z M38.643,92.173 L38.643,90.71 L34.368,90.71 L34.368,92.173 L38.643,92.173 Z M42.899,93.142 L42.899,94.491 L47.288,94.491 L47.288,93.142 L42.899,93.142 Z M47.288,92.173 L47.288,90.748 L42.899,90.748 L42.899,92.173 L47.288,92.173 Z M39.973,89.627 L39.973,95.631 L34.368,95.631 L34.368,106.328 L33,106.328 L33,89.627 L39.973,89.627 Z M47.288,95.574 L41.569,95.574 L41.569,89.646 L48.637,89.646 L48.637,104.371 C48.637,105.625 48.067,106.252 46.927,106.252 C46.243,106.252 45.559,106.233 44.875,106.195 L44.552,104.979 C45.236,105.017 45.863,105.055 46.433,105.055 C47.003,105.055 47.288,104.675 47.288,103.953 L47.288,95.574 Z M53.463,89 L54.812,89.114 C54.641,90.406 54.47,91.603 54.299,92.705 L57.111,92.705 L57.111,93.503 C56.959,96.581 56.427,99.222 55.515,101.464 C56.408,102.395 57.149,103.231 57.719,103.991 L56.807,105.055 C56.275,104.352 55.648,103.592 54.907,102.794 C54.147,104.238 53.216,105.492 52.076,106.556 L51.221,105.473 C52.342,104.447 53.254,103.231 53.976,101.787 C53.216,101.008 52.399,100.21 51.525,99.374 C51.981,97.721 52.38,95.935 52.722,94.016 L51.202,94.016 L51.202,92.705 L52.95,92.705 C53.14,91.508 53.311,90.273 53.463,89 Z M54.546,100.476 C55.268,98.576 55.686,96.429 55.819,94.016 L54.09,94.016 C53.729,96.011 53.368,97.664 52.988,98.975 C53.539,99.488 54.052,99.982 54.546,100.476 Z M67.143,98.424 L67.143,106.518 L65.832,106.518 L65.832,105.378 L60.018,105.378 L60.018,106.518 L58.707,106.518 L58.707,98.424 L67.143,98.424 Z M60.018,104.086 L65.832,104.086 L65.832,99.678 L60.018,99.678 L60.018,104.086 Z M57.966,96.714 L57.757,95.479 C58.859,94.909 60.227,92.781 61.861,89.057 L63.153,89.494 C62.013,91.964 60.892,93.921 59.752,95.384 C61.88,95.251 63.913,95.023 65.832,94.719 C65.3,93.674 64.768,92.705 64.217,91.831 L65.395,91.261 C66.44,92.933 67.428,94.757 68.34,96.752 L67.067,97.36 C66.839,96.847 66.63,96.353 66.402,95.878 C63.875,96.239 61.063,96.524 57.966,96.714 Z" id="開始" fill="#2A3052" fill-rule="nonzero"></path>
        </g>
    </g>
</svg>

<svg width="299" height="197" xmlns="http://www.w3.org/2000/svg" xmlns:xlink="http://www.w3.org/1999/xlink"><defs><path d="M22.92 10.61c.135.375.27.78.405 1.23h5.835v1.32H15.825v-1.32h5.955a8.105 8.105 0 0 0-.45-.96l1.59-.27zm3.81 13.89h-1.245l-.33-1.275 1.155.06c.555 0 .84-.21.84-.6V18.89h-9.3v5.655H16.5V17.66h12v5.325c0 1.005-.6 1.515-1.77 1.515zm-8.55-10.635h8.655v3.12H18.18v-3.12zm7.29 2.04v-.96h-5.925v.96h5.925zm-6.015 3.705h6.105v3.15h-6.105v-3.15zm4.845 2.1v-1.05h-3.57v1.05h3.57zm7.545-10.755c.81.72 1.5 1.425 2.07 2.145l-1.005 1.005c-.495-.69-1.185-1.41-2.055-2.175l.99-.975zm-.36 3.6c.825.72 1.515 1.455 2.055 2.175l-.99.99c-.495-.69-1.185-1.41-2.07-2.19l1.005-.975zm.855 4.035l1.26.495a63.651 63.651 0 0 1-1.635 5.385l-1.32-.585a53.065 53.065 0 0 0 1.695-5.295zm11.415-7.41v1.26H39.96v.93h3.36v1.215h-3.36v.975h3.36v1.2h-3.36v.945h4.17v1.29h-2.25c.075.45.18.885.33 1.275.375-.21.75-.48 1.11-.81l.855.855a6.11 6.11 0 0 1-1.485.99 6.28 6.28 0 0 0 1.77 2.01l-.735 1.185c-1.65-1.35-2.64-3.195-3-5.505h-.93v3.93a10.15 10.15 0 0 0 1.65-.645l.225 1.185c-.96.42-2.055.78-3.285 1.05l-.51-1.095c.435-.15.66-.39.66-.72v-3.705h-.795v-1.29h.885V11.18h5.13zM35.4 15.86l-.21 2.235h2.265c0 2.49-.075 4.155-.21 4.98-.135.855-.75 1.32-1.83 1.395-.33 0-.66-.015-.99-.045l-.315-1.2c.33.03.675.06 1.02.06.54 0 .855-.255.945-.75.06-.51.105-1.575.105-3.195H33.9l.405-4.725h1.815V12.44h-2.01v-1.245h3.27v4.665H35.4z" id="a"/></defs><g fill="none" fill-rule="evenodd"><path fill="#F1F2F2" d="M0 0h299v197H0z"/><path d="M1.987 1.98v193.04h295.026V1.98H1.987zM299 0v197H0V0h299z" fill="#C2C2C2" fill-rule="nonzero"/><path d="M4 55.067v-1.204h290v1.204H4zm0 22.326v-1.204h290v1.204H4zm0 18.604v-1.204h290v1.204H4zm0 39.94v-1.204h290v1.204H4zm0 19.595v-1.204h290v1.204H4zm0 22.326v-1.204h290v1.204H4zM38.72 34h1.2v160h-1.2V34zm37.18 0h1.2v160h-1.2V34zm37.18 0h1.2v160h-1.2V34zm33.46 0h1.201v160h-1.2V34zm37.18 0h1.2v160h-1.2V34zm37.18 0h1.2v160h-1.2V34zm37.18 0h1.2v160h-1.2V34z" fill="#DFDEDE" fill-rule="nonzero"/><path fill="#2A3052" fill-rule="nonzero" d="M3.906 135.82v-1.215h291.607v1.215z"/><path fill="#C2C2C2" fill-rule="nonzero" d="M.8 34.78v-2.43h293.563v2.43z"/><path d="M187.24 148.191h-35.181l-5.419-8.223-5.418 8.223h-35.18c-2.635 0-4.742 2.14-4.742 4.807v24.82c0 2.666 2.145 4.807 4.741 4.807h81.236c2.634 0 4.741-2.14 4.741-4.807v-24.82c0-2.666-2.145-4.807-4.778-4.807z" fill="#E88024"/><path d="M130.904 87.827l-37.362 26.79a1 1 0 0 1-.49.182l-34.958 3.291a1 1 0 1 1-.188-1.99l34.69-3.266L129.9 86.085a1 1 0 0 1 .357-.161l36.539-8.486 36.349-23.682a1 1 0 0 1 .424-.154l37.44-4.594a1 1 0 1 1 .243 1.985l-37.21 4.566L167.74 79.21a1 1 0 0 1-.32.136l-36.516 8.48zm36.064-10.429l-.32.136.148-.096.172-.04zm-74.103 35.41l-.489.183.22-.157.27-.026z" fill="#2A3052" fill-rule="nonzero"/><ellipse cx="8.512" cy="9.225" rx="8.137" ry="8.475" opacity=".6" fill="#FFF" transform="translate(231.25 41)"/><path d="M239.762 59.023c-4.675 0-8.46-3.942-8.46-8.798s3.785-8.798 8.46-8.798c4.676 0 8.461 3.942 8.461 8.798s-3.785 8.798-8.46 8.798zm0-.646c4.313 0 7.815-3.647 7.815-8.152 0-4.505-3.502-8.152-7.815-8.152-4.312 0-7.814 3.647-7.814 8.152 0 4.505 3.502 8.152 7.814 8.152z" fill="#E88024" fill-rule="nonzero"/><ellipse cx="8.137" cy="8.475" rx="8.137" ry="8.475" opacity=".6" transform="translate(84 104.25)" fill="#FFF"/><path d="M92.138 122.523c-4.676 0-8.461-3.942-8.461-8.798s3.785-8.798 8.46-8.798c4.676 0 8.461 3.942 8.461 8.798s-3.785 8.798-8.46 8.798zm0-.646c4.312 0 7.814-3.647 7.814-8.152 0-4.505-3.502-8.152-7.814-8.152-4.313 0-7.815 3.647-7.815 8.152 0 4.505 3.502 8.152 7.815 8.152z" fill="#E88024" fill-rule="nonzero"/><g fill="#000"><use xlink:href="#a"/><use xlink:href="#a"/></g><path d="M236.948 67l1.183.476c-1.289 2.824-2.175 4.473-2.659 4.946l2.262-.315 1.25-2.17 1.173.433c-1.863 3.206-3.441 5.708-4.238 6.312l3.066-.64-.479-1.609.962-.338c.711 1.909 1.067 3.062 1.067 3.46-.6.161-.956.26-1.067.298l-.214-.85c-2.631.67-4.221 1.004-4.77 1.004a16.59 16.59 0 0 1-.336-1.158c.763-.184 2.478-2.754 2.908-3.562l-2.74.41c-.112-.414-.217-.798-.316-1.152.557-.174 1.54-2.022 2.948-5.545zm1.862 11.492a9.01 9.01 0 0 1 .985-.325c.72 1.792 1.08 2.793 1.08 3-.059.065-.397.224-1.016.475a56.23 56.23 0 0 0-1.05-3.15h.001zm-1.098.163c.085.327.706 3.48.706 3.608l-1.188.286c-.248-1.96-.43-3.171-.547-3.636.456-.14.543-.14 1.03-.258h-.001zm-3.037.248l1.141.14c-.15 1.997-.361 3.342-.633 4.037a45.604 45.604 0 0 0-1.139-.336c.34-1.186.55-2.467.63-3.84l.001-.001zm5.671-9.554v1.229h4.335v2.696h-3.804v1.225h8.935v-1.225h-3.867v-2.696h4.23v-1.229h-4.23v-2.242h-1.264v2.242h-4.335zm7.649 14.053v-.819h-5.293v.82h-1.234v-7.122h7.768v7.122h-1.241v-.001zm.034-5.913h-5.313v3.871h5.313v-3.871zm11.254-8.587v-1.817h1.31v1.816h6.962v1.208h-6.962v1.666h5.569v5.101h-4.45c.893 1.551 3.043 3.188 6.448 4.911-.068.042-.355.403-.861 1.083-1.907-.913-5.588-3.805-6.706-5.994l.011 6.506h-1.32c-.01-4.472-.034-6.636-.072-6.494-1.164 2.065-3.725 4.697-6.755 5.982l-.73-1.121c3.213-1.5 5.36-3.124 6.444-4.873l-4.48.012v-5.113h5.592v-1.666h-6.956v-1.207h6.956zm-.048 4.16h-4.316v2.73h4.316v-2.73zm1.365 2.702h4.358v-2.665H260.6v2.665z" fill="#2A3052" fill-rule="nonzero"/><path d="M136.924 169.118v1.502c0 .156-.026.311-.026.466h2.746v-1.968h-2.72zm2.72-1.217v-2.099h-2.72v2.099h2.72zm-2.824 4.403c-.233 1.71-.777 3.16-1.632 4.325l-1.14-1.036c.933-1.295 1.4-2.927 1.425-4.895v-6.242h5.595v10.516c0 1.036-.57 1.554-1.683 1.554h-1.296l-.362-1.425c.414.026.829.052 1.191.052.467 0 .726-.259.726-.725v-2.124h-2.824zm-.362-16.577h-2.176v-1.399h10.646a8.842 8.842 0 0 0-.726-1.295l1.84-.31c.284.491.543 1.035.776 1.605h10.465v1.399h-19.168v1.398h17.614v1.27h-19.271v-2.668zm19.763 20.41h-1.218c-.854 0-1.269-.414-1.269-1.191v-3.549l-.803.544c-.44-.88-1.036-1.813-1.761-2.823v.44c0 1.762-.13 3.134-.337 4.067-.259.932-.751 1.942-1.528 2.978l-1.166-1.036-.414.493a13.404 13.404 0 0 0-1.995-2.02l.881-.83c.7.518 1.347 1.14 1.917 1.813.414-.647.7-1.243.855-1.787.207-.725.336-1.968.336-3.678v-5.102h5.466v10.075c0 .208.103.337.336.337h.467c.18 0 .336-.155.44-.414.078-.285.155-1.244.233-2.875l1.166.414c-.156 1.865-.311 3.03-.493 3.47-.207.441-.595.674-1.113.674zm-5.051-7.434l.777-.466c.777 1.036 1.373 1.917 1.787 2.694v-5.025h-2.564v2.797zm-8.78-4.247h5.905v8.366h-5.906v-8.366h.001zm4.454 7.226v-1.373h-3.03v1.373h3.03zm-3.03-2.357h3.03v-1.32h-3.03v1.32zm0-2.28h3.03v-1.424h-3.03v1.425-.001zm.155 6.191l.933.83c-.674.957-1.529 1.786-2.513 2.512l-.803-1.062c.91-.63 1.714-1.4 2.383-2.28zm-6.734-13.702h17.017v3.756h-17.017v-3.756zm15.282 2.668v-1.58h-13.548v1.58h13.548zm9.324-6.682h2.41l-.39 13.52h-1.605l-.415-13.52zm1.192 15.411c.466 0 .829.13 1.14.44.284.285.44.648.44 1.088 0 .466-.156.83-.44 1.114-.311.285-.7.44-1.14.44-.44 0-.803-.155-1.088-.44a1.506 1.506 0 0 1-.466-1.114c0-.44.155-.803.466-1.088.285-.31.647-.44 1.088-.44z" fill="#FFF" fill-rule="nonzero"/><path d="M35.622 100.381h2.527v-2.185h-2.014v-1.178h9.215v1.178h-1.843v2.185h2.451v1.216h-2.451v4.37h-1.254v-4.37h-2.964c-.114 1.007-.342 1.862-.684 2.546-.456.893-1.235 1.596-2.299 2.09l-.684-1.083c.931-.456 1.596-1.064 1.976-1.824.209-.494.361-1.083.456-1.729h-2.432v-1.216zm6.631 0v-2.185h-2.869v2.185h2.869zm-7.885-7.239v1.387h4.275v-1.387h-4.275zm4.275-.969V90.71h-4.275v1.463h4.275zm4.256.969v1.349h4.389v-1.349h-4.389zm4.389-.969v-1.425h-4.389v1.425h4.389zm-7.315-2.546v6.004h-5.605v10.697H33V89.627h6.973zm7.315 5.947h-5.719v-5.928h7.068v14.725c0 1.254-.57 1.881-1.71 1.881-.684 0-1.368-.019-2.052-.057l-.323-1.216c.684.038 1.311.076 1.881.076.57 0 .855-.38.855-1.102v-8.379zM53.463 89l1.349.114a162.994 162.994 0 0 1-.513 3.591h2.812v.798c-.152 3.078-.684 5.719-1.596 7.961.893.931 1.634 1.767 2.204 2.527l-.912 1.064a29.338 29.338 0 0 0-1.9-2.261c-.76 1.444-1.691 2.698-2.831 3.762l-.855-1.083c1.121-1.026 2.033-2.242 2.755-3.686-.76-.779-1.577-1.577-2.451-2.413a59.331 59.331 0 0 0 1.197-5.358h-1.52v-1.311h1.748c.19-1.197.361-2.432.513-3.705zm1.083 11.476c.722-1.9 1.14-4.047 1.273-6.46H54.09c-.361 1.995-.722 3.648-1.102 4.959a60.303 60.303 0 0 1 1.558 1.501zm12.597-2.052v8.094h-1.311v-1.14h-5.814v1.14h-1.311v-8.094h8.436zm-7.125 5.662h5.814v-4.408h-5.814v4.408zm-2.052-7.372l-.209-1.235c1.102-.57 2.47-2.698 4.104-6.422l1.292.437c-1.14 2.47-2.261 4.427-3.401 5.89a64.708 64.708 0 0 0 6.08-.665 36.462 36.462 0 0 0-1.615-2.888l1.178-.57a47.97 47.97 0 0 1 2.945 5.491l-1.273.608c-.228-.513-.437-1.007-.665-1.482a105.61 105.61 0 0 1-8.436.836z" fill="#2A3052" fill-rule="nonzero"/></g></svg>
